src/images/spotify.svg

<svg fill="none" height="108" viewBox="0 0 108 108" width="108" xmlns="http://www.w3.org/2000/svg"><path d="m54 0c-29.7 0-54 24.3-54 54s24.3 54 54 54 54-24.3 54-54-24.03-54-54-54zm24.8445 78.03c-1.08 1.6155-2.97 2.16-4.5945 1.08-12.69-7.83-28.62-9.4545-47.5245-5.1345-1.881.549-3.5055-.8055-4.0455-2.4255-.54-1.8945.81-3.51 2.43-4.05 20.52-4.5945 38.34-2.7 52.38 5.94 1.89.81 2.1555 2.9655 1.3545 4.59zm6.48-14.85c-1.3545 1.89-3.7845 2.7-5.679 1.35-14.5755-8.91-36.7155-11.61-53.7255-6.21-2.1555.54-4.59-.54-5.13-2.7s.54-4.5945 2.7-5.1345c19.71-5.9355 44.01-2.961 60.75 7.2945 1.6245.8145 2.43 3.51 1.0845 5.4zm.54-15.12c-17.2845-10.26-46.1745-11.34-62.6445-6.2055-2.7.8055-5.4-.8145-6.21-3.2445-.81-2.7045.81-5.4 3.24-6.2145 19.17-5.67 50.76-4.59 70.7445 7.2945 2.4255 1.35 3.2355 4.59 1.8855 7.02-1.3455 1.8945-4.59 2.6955-7.0155 1.35z" fill="#f1f1f1"/></svg>

<svg width="108" height="108" viewBox="0 0 108 108" fill="none" xmlns="http://www.w3.org/2000/svg">
<path d="M54 0C24.3 0 0 24.3 0 54C0 83.7 24.3 108 54 108C83.7 108 108 83.7 108 54C108 24.3 83.97 0 54 0ZM78.8445 78.03C77.7645 79.6455 75.8745 80.19 74.25 79.11C61.56 71.28 45.63 69.6555 26.7255 73.9755C24.8445 74.5245 23.22 73.17 22.68 71.55C22.14 69.6555 23.49 68.04 25.11 67.5C45.63 62.9055 63.45 64.8 77.49 73.44C79.38 74.25 79.6455 76.4055 78.8445 78.03ZM85.3245 63.18C83.97 65.07 81.54 65.88 79.6455 64.53C65.07 55.62 42.93 52.92 25.92 58.32C23.7645 58.86 21.33 57.78 20.79 55.62C20.25 53.46 21.33 51.0255 23.49 50.4855C43.2 44.55 67.5 47.5245 84.24 57.78C85.8645 58.5945 86.67 61.29 85.3245 63.18ZM85.8645 48.06C68.58 37.8 39.69 36.72 23.22 41.8545C20.52 42.66 17.82 41.04 17.01 38.61C16.2 35.9055 17.82 33.21 20.25 32.3955C39.42 26.7255 71.01 27.8055 90.9945 39.69C93.42 41.04 94.23 44.28 92.88 46.71C91.5345 48.6045 88.29 49.4055 85.8645 48.06Z" fill="#F1F1F1"/>
</svg>
